packages/tokens/icons/handsAndHeart/size64Px.svg

<svg viewBox="0 0 64 64" fill="none" xmlns="http://www.w3.org/2000/svg" width="1em" height="1em"><path d="M27.4661 46.0011C27.1906 46.0199 26.9824 46.2584 27.0012 46.5339C27.0199 46.8094 27.2584 47.0176 27.5339 46.9989L27.4661 46.0011ZM33.5827 42.4017L33.5455 42.9003L33.5827 42.4017ZM42.2833 44.1223L41.8833 43.8223L42.2833 44.1223ZM19.5478 43.0617L19.2355 42.6713L19.5478 43.0617ZM20.886 41.9912L21.1983 42.3817L20.886 41.9912ZM22.2857 41.5586L22.3229 41.06L22.2857 41.5586ZM43.6909 48.6961L43.9587 49.1183L43.6909 48.6961ZM44.2196 48.2072L44.6196 48.5072L44.2196 48.2072ZM48.0329 39.376L48.281 38.9418L48.0329 39.376ZM37.0986 52.8778L36.8308 52.4555L37.0986 52.8778ZM16.5 54H34.956V53H16.5V54ZM37.3664 53.3L43.9587 49.1183L43.4231 48.2738L36.8308 52.4555L37.3664 53.3ZM20.5736 41.6008L19.2355 42.6713L19.8602 43.4522L21.1983 42.3817L20.5736 41.6008ZM41.3541 44.2639L37.4989 46.1915L37.9461 47.0859L41.8013 45.1584L41.3541 44.2639ZM22.2485 42.0572C26.5829 42.3807 29.4153 42.5921 33.5455 42.9003L33.6199 41.9031C29.4897 41.5949 26.6573 41.3835 22.3229 41.06L22.2485 42.0572ZM33.5379 45.5887L27.4661 46.0011L27.5339 46.9989L33.6056 46.5864L33.5379 45.5887ZM18.2984 43H16.5V44H18.2984V43ZM44.6196 48.5072L49.0407 42.6125L48.2407 42.0125L43.8196 47.9072L44.6196 48.5072ZM45.0407 39.6125L41.8833 43.8223L42.6833 44.4223L45.8407 40.2125L45.0407 39.6125ZM36.379 46.2811L34.1497 45.5814L33.8503 46.5356L36.0795 47.2352L36.379 46.2811ZM49.0407 42.6125C49.9429 41.4095 49.5866 39.6879 48.281 38.9418L47.7849 39.8101C48.5682 40.2577 48.782 41.2907 48.2407 42.0125L49.0407 42.6125ZM34.7941 44.2442C34.7941 44.953 34.2451 45.5407 33.5379 45.5887L33.6056 46.5864C34.8376 46.5028 35.7941 45.479 35.7941 44.2442H34.7941ZM33.5455 42.9003C34.2494 42.9528 34.7941 43.5394 34.7941 44.2442H35.7941C35.7941 43.015 34.8448 41.9945 33.6199 41.9031L33.5455 42.9003ZM41.8013 45.1584C42.1485 44.9848 42.4504 44.7328 42.6833 44.4223L41.8833 43.8223C41.7436 44.0086 41.5624 44.1598 41.3541 44.2639L41.8013 45.1584ZM19.2355 42.6713C18.9695 42.8841 18.639 43 18.2984 43V44C18.8661 44 19.4169 43.8068 19.8602 43.4522L19.2355 42.6713ZM21.1983 42.3817C21.494 42.1451 21.8701 42.029 22.2485 42.0572L22.3229 41.06C21.6933 41.013 21.0672 41.2059 20.5736 41.6008L21.1983 42.3817ZM37.4989 46.1915C37.1513 46.3653 36.7498 46.3974 36.379 46.2811L36.0795 47.2352C36.6976 47.4291 37.3668 47.3756 37.9461 47.0859L37.4989 46.1915ZM43.9587 49.1183C44.2142 48.9562 44.4381 48.7492 44.6196 48.5072L43.8196 47.9072C43.7107 48.0524 43.5764 48.1766 43.4231 48.2738L43.9587 49.1183ZM48.281 38.9418C47.1863 38.3163 45.7971 38.6038 45.0407 39.6125L45.8407 40.2125C46.2946 39.6073 47.1281 39.4348 47.7849 39.8101L48.281 38.9418ZM34.956 54C35.8096 54 36.6456 53.7572 37.3664 53.3L36.8308 52.4555C36.2702 52.8112 35.6199 53 34.956 53V54Z" fill="currentColor"/><path d="M35 44.5L38.9699 42.7356C39.3162 42.5817 39.6116 42.3326 39.8218 42.0174L41.6956 39.2066C42.1551 38.5173 43.0561 38.278 43.797 38.6485V38.6485C44.6942 39.0971 44.9834 40.238 44.4081 41.0598L42 44.5" stroke="currentColor"/><path d="M16.5 54C16.5 54.8284 15.8284 55.5 15 55.5H9C8.72386 55.5 8.5 55.2761 8.5 55V42C8.5 41.7239 8.72386 41.5 9 41.5H15C15.8284 41.5 16.5 42.1716 16.5 43V54Z" stroke="currentColor"/><path d="M16.5 53V49.5C16.5 47.2909 14.7091 45.5 12.5 45.5H9" stroke="currentColor"/><circle cx="12" cy="48" r="0.5" transform="rotate(180 12 48)" stroke="currentColor"/><path d="M47.5 10C47.5 9.17157 48.1716 8.5 49 8.5H55C55.2761 8.5 55.5 8.72386 55.5 9V22C55.5 22.2761 55.2761 22.5 55 22.5H49C48.1716 22.5 47.5 21.8284 47.5 21V10Z" stroke="currentColor"/><path d="M47.5 11V14.5C47.5 16.7091 49.2909 18.5 51.5 18.5H55" stroke="currentColor"/><circle cx="52" cy="16" r="0.5" stroke="currentColor"/><path d="M47.5 10.5H48V10H47.5V10.5ZM27.5 17.5V17C27.3328 17 27.1767 17.0836 27.084 17.2227L27.5 17.5ZM31 17.5L31.2236 17.0528C31.1542 17.0181 31.0776 17 31 17V17.5ZM34 19L34.3817 19.323C34.4808 19.2059 34.5206 19.0497 34.4898 18.8995C34.4589 18.7492 34.3608 18.6214 34.2236 18.5528L34 19ZM47.5 20.5V21H48V20.5H47.5ZM44.4522 20.9383L44.7645 21.3287L44.4522 20.9383ZM37.2463 22.7306L36.91 22.3607L37.2463 22.7306ZM33.1238 26.4783L33.4602 26.8483L33.1238 26.4783ZM30.1228 23.5821L30.5045 23.9051L30.1228 23.5821ZM30.6813 26.7465L30.9294 26.3123L30.6813 26.7465ZM22.8096 14.8386L22.3738 14.5934L22.8096 14.8386ZM43.0478 22.0617L42.7355 21.6713L43.0478 22.0617ZM47.5 10L28.7016 10V11L47.5 11V10ZM27.1398 10.5478L22.991 13.8669L23.6157 14.6478L27.7645 11.3287L27.1398 10.5478ZM22.3738 14.5934L18.0642 22.2549L18.9358 22.7451L23.2453 15.0837L22.3738 14.5934ZM26.916 19.2774L27.916 17.7773L27.084 17.2227L26.084 18.7226L26.916 19.2774ZM27.5 18H31V17H27.5V18ZM30.7764 17.9472L33.7764 19.4472L34.2236 18.5528L31.2236 17.0528L30.7764 17.9472ZM33.6183 18.677L29.7411 23.2592L30.5045 23.9051L34.3817 19.323L33.6183 18.677ZM33.4602 26.8483L37.5826 23.1006L36.91 22.3607L32.7875 26.1084L33.4602 26.8483ZM37.8429 23H41.7984V22H37.8429V23ZM43.3602 22.4522L44.7645 21.3287L44.1398 20.5478L42.7355 21.6713L43.3602 22.4522ZM45.7016 21H47.5V20H45.7016V21ZM48 20.5V10.5H47V20.5H48ZM44.7645 21.3287C45.0305 21.1159 45.361 21 45.7016 21V20C45.1339 20 44.5831 20.1932 44.1398 20.5478L44.7645 21.3287ZM37.5826 23.1006C37.6538 23.0359 37.7466 23 37.8429 23V22C37.4979 22 37.1652 22.1286 36.91 22.3607L37.5826 23.1006ZM30.4332 27.1806C31.4076 27.7374 32.6298 27.6032 33.4602 26.8483L32.7875 26.1084C32.2777 26.5718 31.5275 26.6541 30.9294 26.3123L30.4332 27.1806ZM29.7411 23.2592C28.6952 24.4952 29.0274 26.3772 30.4332 27.1806L30.9294 26.3123C30.0663 25.8192 29.8624 24.6639 30.5045 23.9051L29.7411 23.2592ZM22.991 13.8669C22.7405 14.0673 22.531 14.3139 22.3738 14.5934L23.2453 15.0837C23.3397 14.916 23.4654 14.768 23.6157 14.6478L22.991 13.8669ZM41.7984 23C42.3661 23 42.9169 22.8068 43.3602 22.4522L42.7355 21.6713C42.4695 21.8841 42.139 22 41.7984 22V23ZM28.7016 10C28.1339 10 27.5831 10.1932 27.1398 10.5478L27.7645 11.3287C28.0305 11.1159 28.361 11 28.7016 11V10Z" fill="currentColor"/><path d="M32 22.03L31.1103 21.215C27.722 18.1095 22.4134 18.2917 19.2536 21.6219C16.0939 24.952 16.2793 30.1707 19.668 33.275L19.6995 33.3039L29.5 42M34.5 42.5L44.3009 33.3039L44.3323 33.275C47.7207 30.1707 47.9061 24.952 44.7463 21.6219C44.5494 21.4143 44.3441 21.219 44.1314 21.0359" stroke="currentColor"/></svg>

<svg xmlns="http://www.w3.org/2000/svg" fill="none" viewBox="0 0 64 64" width="1em" height="1em"><path fill="currentColor" d="M27.466 46.001a.5.5 0 0 0 .068.998L27.466 46Zm6.117-3.6-.038.5.038-.5Zm8.7 1.721-.4-.3.4.3Zm-22.735-1.06-.313-.39.313.39Zm1.338-1.07.312.39-.312-.39Zm1.4-.433.037-.499-.037.499Zm21.405 7.137.268.422-.268-.422Zm.529-.489.4.3-.4-.3Zm3.813-8.831.248-.434-.248.434ZM37.099 52.878l-.268-.422.268.422ZM16.5 54h18.456v-1H16.5v1Zm20.866-.7 6.593-4.182-.536-.844-6.592 4.181.535.845ZM20.574 41.6l-1.339 1.071.625.781 1.338-1.07-.624-.781Zm20.78 2.664L37.5 46.19l.447.895 3.855-1.928-.447-.894ZM22.25 42.057l11.296.843.075-.997-11.297-.843-.075.997Zm11.289 3.532L27.466 46l.068.998 6.072-.413-.068-.997ZM18.298 43H16.5v1h1.798v-1Zm26.322 5.507 4.42-5.895-.8-.6-4.42 5.895.8.6Zm.42-8.895-3.157 4.21.8.6 3.158-4.21-.8-.6Zm-8.661 6.67-2.23-.7-.299.954 2.23.7.299-.955Zm12.662-3.67a2.5 2.5 0 0 0-.76-3.67l-.496.868a1.5 1.5 0 0 1 .456 2.203l.8.6Zm-14.247 1.632c0 .709-.549 1.297-1.256 1.345l.068.997a2.347 2.347 0 0 0 2.188-2.342h-1ZM33.546 42.9a1.35 1.35 0 0 1 1.248 1.344h1c0-1.229-.95-2.25-2.174-2.34l-.075.996Zm8.255 2.258a2.5 2.5 0 0 0 .882-.736l-.8-.6a1.5 1.5 0 0 1-.529.442l.447.894Zm-22.566-2.487a1.5 1.5 0 0 1-.937.329v1a2.5 2.5 0 0 0 1.562-.548l-.625-.78Zm1.963-.29a1.504 1.504 0 0 1 1.05-.324l.075-.997a2.504 2.504 0 0 0-1.75.54l.625.782Zm16.3 3.81a1.5 1.5 0 0 1-1.119.09l-.3.954a2.5 2.5 0 0 0 1.867-.15l-.447-.894Zm6.46 2.927a2.5 2.5 0 0 0 .662-.61l-.8-.6c-.11.144-.244.269-.397.366l.536.844Zm4.323-10.176a2.5 2.5 0 0 0-3.24.67l.8.6a1.5 1.5 0 0 1 1.944-.402l.496-.868ZM34.956 54a4.5 4.5 0 0 0 2.41-.7l-.535-.844a3.5 3.5 0 0 1-1.875.544v1Z"/><path stroke="currentColor" d="m35 44.5 3.97-1.764a2 2 0 0 0 .852-.719l1.874-2.81a1.643 1.643 0 1 1 2.712 1.853L42 44.5M16.5 54a1.5 1.5 0 0 1-1.5 1.5H9a.5.5 0 0 1-.5-.5V42a.5.5 0 0 1 .5-.5h6a1.5 1.5 0 0 1 1.5 1.5v11Z"/><path stroke="currentColor" d="M16.5 53v-3.5a4 4 0 0 0-4-4H9"/><circle cx="12" cy="48" r=".5" stroke="currentColor" transform="rotate(180 12 48)"/><path stroke="currentColor" d="M47.5 10A1.5 1.5 0 0 1 49 8.5h6a.5.5 0 0 1 .5.5v13a.5.5 0 0 1-.5.5h-6a1.5 1.5 0 0 1-1.5-1.5V10Z"/><path stroke="currentColor" d="M47.5 11v3.5a4 4 0 0 0 4 4H55"/><circle cx="52" cy="16" r=".5" stroke="currentColor"/><path fill="currentColor" d="M47.5 10.5h.5V10h-.5v.5Zm-20 7V17a.5.5 0 0 0-.416.223l.416.277Zm3.5 0 .224-.447A.5.5 0 0 0 31 17v.5Zm3 1.5.382.323a.5.5 0 0 0-.158-.77L34 19Zm13.5 1.5v.5h.5v-.5h-.5Zm-3.048.438.313.39-.313-.39Zm-7.206 1.793-.336-.37.336.37Zm-4.122 3.747.336.37-.336-.37Zm-3.001-2.896.381.323-.381-.323Zm.558 3.165.248-.435-.248.434ZM22.81 14.839l-.436-.246.436.246Zm20.238 7.223-.313-.39.313.39ZM47.5 10H28.702v1H47.5v-1Zm-20.36.548-4.149 3.319.625.78 4.149-3.318-.625-.781Zm-4.766 4.045-4.31 7.662.872.49 4.31-7.661-.872-.49Zm4.542 4.684 1-1.5-.832-.554-1 1.5.832.554ZM27.5 18H31v-1h-3.5v1Zm3.276-.053 3 1.5.448-.894-3-1.5-.448.894Zm2.842.73-3.877 4.582.764.646 3.877-4.582-.764-.646Zm-.158 8.171 4.123-3.747-.673-.74-4.122 3.747.672.74ZM37.843 23h3.955v-1h-3.955v1Zm5.517-.548 1.404-1.123-.624-.781-1.404 1.123.624.781ZM45.702 21H47.5v-1h-1.798v1ZM48 20.5v-10h-1v10h1Zm-3.236.829a1.5 1.5 0 0 1 .938-.329v-1a2.5 2.5 0 0 0-1.562.548l.624.78Zm-7.18 1.771a.387.387 0 0 1 .26-.101v-1c-.345 0-.678.129-.933.36l.673.74Zm-7.15 4.08a2.59 2.59 0 0 0 3.027-.333l-.672-.74a1.59 1.59 0 0 1-1.859.204l-.496.869Zm-.692-3.922a2.59 2.59 0 0 0 .692 3.922l.496-.869a1.59 1.59 0 0 1-.424-2.407l-.764-.646Zm-6.75-9.392a2.5 2.5 0 0 0-.617.726l.871.49a1.5 1.5 0 0 1 .37-.435l-.624-.781ZM41.798 23a2.5 2.5 0 0 0 1.562-.548l-.624-.78a1.5 1.5 0 0 1-.938.328v1ZM28.702 10a2.5 2.5 0 0 0-1.562.548l.625.78a1.5 1.5 0 0 1 .937-.328v-1Z"/><path stroke="currentColor" d="m32 22.03-.89-.815c-3.388-3.105-8.697-2.923-11.856.407a8.146 8.146 0 0 0 .414 11.653l.032.029L29.5 42m5 .5 9.8-9.196.032-.029a8.146 8.146 0 0 0 .414-11.653 8.404 8.404 0 0 0-.615-.586"/></svg>
